X:26
T:Sl\"angpolska fr{\aa}n Blekinge
R:sl\"angpolska
H:efter systrarna Ulla och Britt Forsstr\"omson, M\"orrum
H:jfr #106, #235
A:Blekinge
D:Version 1 efter "Den Fule"
D:Version 2 efter Valramn/Lure
Z:id:hn-sp-26
M:3/4
L:1/16
K:Am
AB |: c2cA B2BG A2AG | AGAB cBcd e2AB | c2cA B2BG A2AA |1 G2A2 A6AB :|
[2 G2A2 A4 c2d2 |: e4 g4 e4 | e2de d4 B3c | d2dB d2dB cBcd | edcB cBcd c2d2 |
e4 g4 e4 | e2de d4 B3c | d2dB d2dB cBcd | edcB cBcd e2AB | c2cA B2BG A2AG |
AGAB cBcd e2AB | c2cA B2BG A2AA |1 G2A2 A4 c2d2 :|2 G2A2 A4 ||
P:version 2
A3B |: c2cA B2BG E2EG | AGAB cBcd e2AB | c2cA B2BG E2G2 |
[1 G2A2 A4 A3B :|2 G2A2 A4 c2d2 ||
e4 g4 e4 | e2de d4 B3c | d2dB d2dB cBcd | edcB cBAB c2d2 |
e4 g4 e4 | e2de d4 B3c | d2dB d2dB cBcd | edcB cBAG A2AB |
c2cA B2BG E2EG | A2AB cBcd e2AB | c2cA B2BG E2G2 | G2A2 A4 ||

